packages/assets/application-icons/01.Stack.svg

<?xml version="1.0" encoding="UTF-8"?>
<svg width="24px" height="24px" viewBox="0 0 24 24" version="1.1" xmlns="http://www.w3.org/2000/svg" xmlns:xlink="http://www.w3.org/1999/xlink">
    <title>01.Stack</title>
    <g id="Page-1" stroke="none" stroke-width="1" fill="none" fill-rule="evenodd">
        <g id="Artboard" transform="translate(-66.000000, -101.000000)" fill="#000000" fill-rule="nonzero">
            <g id="01.Stack" transform="translate(66.000000, 101.000000)">
                <path d="M20.8128422,14.216124 C20.9264155,14.2327392 21.0066909,14.3359469 20.9948422,14.450116 L20.9948422,14.450116 L20.9948422,15.272098 C20.9960013,15.3572851 20.9685199,15.4403936 20.9168142,15.508104 L20.9168142,15.508104 L16.6968422,20.76801 C16.591138,20.9090787 16.427032,20.9944396 16.2508422,21 L16.2508422,21 L3.17682417,21 C3.06288457,20.9840134 2.98227925,20.8803677 2.99484217,20.766 L2.99484217,20.766 L2.99484217,19.946026 C2.99334544,19.8607947 3.02083951,19.777582 3.07282017,19.71002 L3.07282017,19.71002 L5.41484217,16.792084 L16.2508542,16.792084 C16.8523483,16.7874443 17.4187707,16.508282 17.7888422,16.034084 L17.7888422,16.034084 L19.2488422,14.216124 Z M20.8128422,8.608226 C20.926781,8.6242117 21.007391,8.72784957 20.9948422,8.842218 L20.9948422,8.842218 L20.9948422,9.6622 C20.9963232,9.74743517 20.9688114,9.83064621 20.9168142,9.8982 L20.9168142,9.8982 L16.6968422,15.158116 C16.5919185,15.3003748 16.4275238,15.3866267 16.2508422,15.392116 L16.2508422,15.392116 L3.17682417,15.392116 C3.06325241,15.3754959 2.98298382,15.2722832 2.99484217,15.158116 L2.99484217,15.158116 L2.99484217,14.336116 C2.9936812,14.2509381 3.02113029,14.1678332 3.07282017,14.100122 L3.07282017,14.100122 L5.41484217,11.182188 L16.2508542,11.182188 C16.8520779,11.1783282 17.4185614,10.8998725 17.7888422,10.426188 L17.7888422,10.426188 L19.2468422,8.608226 Z M20.8124682,3 C20.9264772,3.01589877 21.0072364,3.11948895 20.9948422,3.233932 L20.9948422,3.233932 L20.9948422,4.054302 C20.9960972,4.13954798 20.9686922,4.22274666 20.9169982,4.290542 L20.9169982,4.290542 L16.6973002,9.550324 C16.5918983,9.69215905 16.4272963,9.77785271 16.2506562,9.782852 L16.2506562,9.782852 L3.17705617,9.782852 C3.06313991,9.76695495 2.98245317,9.66344296 2.99484217,9.549092 L2.99484217,9.549092 L2.99484217,8.728536 C2.99358714,8.64328879 3.02098678,8.56008794 3.07267417,8.492286 L3.07267417,8.492286 L7.29229017,3.23254 C7.3976918,3.09069043 7.56230625,3.00499044 7.73895817,3 L7.73895817,3 Z" id="Stack"></path>
            </g>
        </g>
    </g>
</svg>

<svg width="24" height="24" viewBox="0 0 24 24" xmlns="http://www.w3.org/2000/svg"><path d="M20.813 14.216c.113.017.194.12.182.234v.822a.38.38 0 0 1-.078.236l-4.22 5.26a.58.58 0 0 1-.446.232H3.177a.213.213 0 0 1-.182-.234v-.82a.376.376 0 0 1 .078-.236l2.342-2.918H16.25a1.97 1.97 0 0 0 1.538-.758l1.46-1.818Zm0-5.608c.114.016.194.12.182.234v.82a.376.376 0 0 1-.078.236l-4.22 5.26a.576.576 0 0 1-.446.234H3.177a.214.214 0 0 1-.182-.234v-.822a.38.38 0 0 1 .078-.236l2.342-2.918H16.25a1.968 1.968 0 0 0 1.538-.756l1.458-1.818Zm0-5.608c.113.016.194.12.182.234v.82a.38.38 0 0 1-.078.237l-4.22 5.26a.577.577 0 0 1-.446.232H3.177a.213.213 0 0 1-.182-.234v-.82a.38.38 0 0 1 .078-.237l4.22-5.26A.577.577 0 0 1 7.738 3Z" fill="#000" fill-rule="nonzero"/></svg>
